public/img/session_icon.svg

<svg width="24" height="24" viewBox="0 0 24 24" fill="none" xmlns="http://www.w3.org/2000/svg">
<path d="M12 0C8.8174 0 5.76516 1.26428 3.51472 3.51472C1.26428 5.76516 0 8.8174 0 12C0 15.1826 1.26428 18.2348 3.51472 20.4853C5.76516 22.7357 8.8174 24 12 24C15.1826 24 18.2348 22.7357 20.4853 20.4853C22.7357 18.2348 24 15.1826 24 12C24 8.8174 22.7357 5.76516 20.4853 3.51472C18.2348 1.26428 15.1826 0 12 0V0ZM8.75586 4.22656H15.8984C17.7818 4.33486 18.9682 5.7256 19.0508 7.17383C19.1415 8.76501 17.9436 10.4259 15.8984 10.5293H14.0078L16.7402 12C18.6309 13.0504 19.4484 15.461 18.8066 17.1992C18.2725 18.6459 16.5289 19.7734 15.4785 19.7734H8.12695C3.9254 19.5634 3.9254 13.6808 8.12695 13.4707H10.0176L7.07617 11.7891C3.29477 9.4782 4.97446 4.22656 8.75586 4.22656ZM8.80273 5.17773C7.777 5.17773 6.27715 6.24895 6.05859 7.55078C5.89207 8.54268 6.32173 10.2332 7.46094 10.8555L11.4727 13.1719V10.0156C11.4727 9.72606 11.6547 9.51367 11.9766 9.51367H15.9297C17.0312 9.51367 17.9228 8.49773 17.9824 7.44922C18.0459 6.33245 17.1042 5.17773 15.7559 5.17773H8.80273ZM12.4785 10.832V13.918C12.4674 14.2912 12.3593 14.4297 11.9668 14.4297H8.00391C6.95859 14.4297 6.04973 15.4861 6.01367 16.5547C5.97674 17.6489 6.86123 18.7559 8.00391 18.7559H15.0098C16.4825 18.7559 17.583 17.5943 17.873 16.5762C18.1205 15.7076 17.9666 13.8189 16.3633 12.9824L12.4785 10.832Z" fill="#A0BD83"/>
</svg>

<?xml version="1.0" encoding="utf-8"?>
<!-- Generator: Adobe Illustrator 24.3.0, SVG Export Plug-In . SVG Version: 6.00 Build 0)  -->
<svg version="1.1" id="Layer_1" xmlns="http://www.w3.org/2000/svg" xmlns:xlink="http://www.w3.org/1999/xlink" x="0px" y="0px"
	 viewBox="0 0 24 24" style="enable-background:new 0 0 24 24;" xml:space="preserve">
<path d="M12,0C8.8,0,5.8,1.3,3.5,3.5S0,8.8,0,12s1.3,6.2,3.5,8.5C5.8,22.7,8.8,24,12,24s6.2-1.3,8.5-3.5c2.3-2.3,3.5-5.3,3.5-8.5
	s-1.3-6.2-3.5-8.5C18.2,1.3,15.2,0,12,0L12,0z M8.8,4.2h7.1c1.9,0.1,3.1,1.5,3.2,2.9c0.1,1.6-1.1,3.3-3.2,3.4H14l2.7,1.5
	c1.9,1.1,2.7,3.5,2.1,5.2c-0.5,1.4-2.3,2.6-3.3,2.6H8.1c-4.2-0.2-4.2-6.1,0-6.3H10l-2.9-1.7C3.3,9.5,5,4.2,8.8,4.2z M8.8,5.2
	c-1,0-2.5,1.1-2.7,2.4c-0.2,1,0.3,2.7,1.4,3.3l4,2.3V10c0-0.3,0.2-0.5,0.5-0.5h4c1.1,0,2-1,2.1-2.1c0.1-1.1-0.9-2.3-2.2-2.3H8.8z
	 M12.5,10.8v3.1c0,0.4-0.1,0.5-0.5,0.5H8c-1,0-2,1.1-2,2.1c0,1.1,0.8,2.2,2,2.2h7c1.5,0,2.6-1.2,2.9-2.2c0.2-0.9,0.1-2.8-1.5-3.6
	L12.5,10.8z"/>
</svg>
